Newaita/actions/22/irc-channel-inactive.svg

<?xml version="1.0" encoding="UTF-8"?>
<svg xmlns="http://www.w3.org/2000/svg" xmlns:xlink="http://www.w3.org/1999/xlink" width="22pt" height="22pt" viewBox="0 0 22 22" version="1.1">
<g id="surface1">
<path style=" stroke:none;fill-rule:nonzero;fill:rgb(25.882354%,25.882354%,25.882354%);fill-opacity:0.392157;" d="M 6.140625 1.082031 C 5.761719 1.082031 5.457031 1.386719 5.457031 1.761719 L 5.457031 5.628906 L 1.589844 5.628906 C 1.214844 5.628906 0.910156 5.933594 0.910156 6.3125 C 0.910156 6.691406 1.214844 6.992188 1.589844 6.992188 L 5.457031 6.992188 L 5.457031 15.179688 L 1.589844 15.179688 C 1.214844 15.179688 0.910156 15.484375 0.910156 15.863281 C 0.910156 16.242188 1.214844 16.542969 1.589844 16.542969 L 5.457031 16.542969 L 5.457031 20.410156 C 5.457031 20.789062 5.761719 21.09375 6.140625 21.09375 C 6.519531 21.09375 6.820312 20.789062 6.820312 20.410156 L 6.820312 16.542969 L 15.007812 16.542969 L 15.007812 20.410156 C 15.007812 20.789062 15.3125 21.09375 15.691406 21.09375 C 16.070312 21.09375 16.371094 20.789062 16.371094 20.410156 L 16.371094 16.542969 L 20.238281 16.542969 C 20.617188 16.542969 20.921875 16.242188 20.921875 15.863281 C 20.921875 15.484375 20.617188 15.179688 20.238281 15.179688 L 16.371094 15.179688 L 16.371094 6.992188 L 20.238281 6.992188 C 20.617188 6.992188 20.921875 6.691406 20.921875 6.3125 C 20.921875 5.933594 20.617188 5.628906 20.238281 5.628906 L 16.371094 5.628906 L 16.371094 1.761719 C 16.371094 1.386719 16.070312 1.082031 15.691406 1.082031 C 15.3125 1.082031 15.007812 1.386719 15.007812 1.761719 L 15.007812 5.628906 L 6.820312 5.628906 L 6.820312 1.761719 C 6.820312 1.386719 6.519531 1.082031 6.140625 1.082031 Z M 6.820312 6.992188 L 15.007812 6.992188 L 15.007812 15.179688 L 6.820312 15.179688 Z M 6.820312 6.992188 "/>
</g>
</svg>

<svg xmlns="http://www.w3.org/2000/svg" width="22pt" height="22pt" viewBox="0 0 22 22"><path d="M6.14 1.082a.681.681 0 0 0-.683.68v3.867H1.59a.681.681 0 0 0 0 1.363h3.867v8.188H1.59a.681.681 0 0 0 0 1.363h3.867v3.867a.682.682 0 1 0 1.363 0v-3.867h8.188v3.867a.682.682 0 1 0 1.363 0v-3.867h3.867a.682.682 0 0 0 0-1.363h-3.867V6.992h3.867a.682.682 0 0 0 0-1.363h-3.867V1.762c0-.375-.3-.68-.68-.68a.681.681 0 0 0-.683.68v3.867H6.82V1.762c0-.375-.3-.68-.68-.68zm.68 5.91h8.188v8.188H6.82zm0 0" fill="#424242" fill-opacity=".392"/></svg>
